app/assets/images/bockinbusiness/logo-sb.svg

<svg width="496" height="160" viewBox="0 0 496 160" fill="none" xmlns="http://www.w3.org/2000/svg">
<g clip-path="url(#clip0)">
<path d="M492.385 51.8982C482.042 51.8982 473.655 43.5115 473.655 33.1689C473.655 32.3688 473.715 31.6279 473.803 30.8574H23.6486C23.7375 31.6279 23.7968 32.3984 23.7968 33.1689C23.7968 43.5115 15.4101 51.8982 5.06752 51.8982C3.85249 51.8982 2.63745 51.7797 1.48169 51.5426V137.425C2.63745 137.188 3.82285 137.069 5.06752 137.069C15.4101 137.069 23.7968 145.456 23.7968 155.798C23.7968 156.569 23.7375 157.31 23.6486 158.051H473.774C473.685 157.31 473.626 156.569 473.626 155.798C473.626 145.456 482.012 137.069 492.355 137.069C493.066 137.069 493.777 137.128 494.459 137.188V51.7797C493.807 51.839 493.096 51.8982 492.385 51.8982Z" fill="#79170E" stroke="#E30613" stroke-width="2.96349" stroke-miterlimit="10" stroke-linecap="round" stroke-linejoin="round"/>
<path d="M485.865 59.0108C475.522 59.0108 467.136 50.6241 467.136 40.2815C467.136 39.4814 467.195 38.7405 467.284 37.97H30.4647C30.5536 38.7405 30.6128 39.511 30.6128 40.2815C30.6128 50.6241 22.2262 59.0108 11.8836 59.0108C10.6685 59.0108 9.45349 58.8922 8.29773 58.6552V130.609C9.45349 130.372 10.6389 130.253 11.8836 130.253C22.2262 130.253 30.6128 138.64 30.6128 148.982C30.6128 149.753 30.5536 150.494 30.4647 151.235H467.254C467.165 150.494 467.106 149.753 467.106 148.982C467.106 138.64 475.493 130.253 485.835 130.253C486.546 130.253 487.258 130.312 487.939 130.372V58.8922C487.287 58.9515 486.576 59.0108 485.865 59.0108Z" fill="#79170E" stroke="#FDC100" stroke-width="2.96349" stroke-miterlimit="10" stroke-linecap="round" stroke-linejoin="round"/>
<path d="M410.444 72.228H56.0692" stroke="#E30613" stroke-width="2.07445" stroke-miterlimit="10" stroke-linecap="round" stroke-linejoin="round"/>
<path d="M414.237 122.844H56.0692" stroke="#E30613" stroke-width="2.07445" stroke-miterlimit="10" stroke-linecap="round" stroke-linejoin="round"/>
<path d="M437.886 120.918L437.441 116.68C437.115 110.101 437.827 100.085 440.316 93.2392C442.983 85.9193 443.635 84.5265 442.953 75.0137" stroke="#FDC100" stroke-width="2.07445" stroke-miterlimit="10" stroke-linecap="round" stroke-linejoin="round"/>
<path d="M414.059 74.8655C413.378 84.4968 414.03 85.86 416.697 93.2095C419.186 100.085 419.927 110.072 419.601 116.651L419.157 120.889" stroke="#FDC100" stroke-width="2.07445" stroke-miterlimit="10" stroke-linecap="round" stroke-linejoin="round"/>
<path d="M418.801 123.437C417.408 127.497 418.001 128.712 418.001 128.712H439.042C439.634 127.23 438.242 123.437 438.242 123.437C438.242 123.437 424.254 123.526 424.313 123.437" stroke="white" stroke-width="2.07445" stroke-miterlimit="10" stroke-linecap="round" stroke-linejoin="round"/>
<path d="M438.272 72.2278H442.954L442.065 62.3594H414.949C414.949 62.3594 414.327 68.5234 414.12 72.2278H427.87" stroke="white" stroke-width="2.07445" stroke-miterlimit="10" stroke-linecap="round" stroke-linejoin="round"/>
<path d="M435.722 72.2278H431.87" stroke="white" stroke-width="2.07445" stroke-miterlimit="10" stroke-linecap="round" stroke-linejoin="round"/>
<path d="M434.626 89.861C434.626 93.1801 431.959 95.8473 428.64 95.8473C425.321 95.8473 422.654 93.1801 422.654 89.861C422.654 86.5419 425.35 83.8748 428.64 83.8748" stroke="#E30B17" stroke-width="2.07445" stroke-miterlimit="10" stroke-linecap="round" stroke-linejoin="round"/>
<path d="M428.403 80.585L431.692 83.8744L428.403 87.1639" stroke="#E30B17" stroke-width="2.07445" stroke-miterlimit="10" stroke-linecap="round" stroke-linejoin="round"/>
<path d="M73.6724 80.3194C75.2134 82.2753 75.9839 85.0609 75.9839 88.7653C75.9839 91.9066 75.2727 94.1292 73.8798 95.611C76.0432 97.152 77.1693 100.204 77.1693 104.887C77.1693 109.006 76.3395 111.94 74.7392 113.748C73.1389 115.644 70.62 116.533 67.1823 116.533H56.0692V77.3855H66.3822C69.7606 77.3855 72.1906 78.3634 73.6724 80.3194ZM69.6124 88.6468C69.6124 85.7722 68.4863 84.3793 66.2636 84.3793H63.0631V92.8846H66.3822C68.5455 92.8846 69.6124 91.4917 69.6124 88.6468ZM70.7978 104.916C70.7978 101.775 69.6717 100.086 67.449 99.8784H63.0631V109.658H67.449C69.6717 109.658 70.7978 108.058 70.7978 104.916Z" fill="white"/>
<path d="M104.76 80.4665C106.656 82.6298 107.545 88.0827 107.545 96.7953C107.545 105.538 106.627 111.05 104.76 113.332C102.863 115.643 99.7216 116.829 95.3356 116.829C91.1571 116.829 88.0158 115.702 85.9117 113.332C83.8076 110.961 82.7704 105.508 82.7704 96.9139C82.7704 88.3197 83.8076 82.8669 85.9117 80.585C88.0158 78.2735 91.0682 77.177 95.1874 77.177C99.6623 77.177 102.863 78.2439 104.76 80.4665ZM90.8607 85.5044C90.031 86.4231 89.6753 90.246 89.6753 97.0324C89.6753 103.819 90.0902 107.582 90.92 108.472C91.7498 109.39 93.2315 109.805 95.1874 109.805C97.2915 109.805 98.6844 109.39 99.4549 108.472C100.225 107.553 100.64 103.73 100.64 97.0324C100.64 90.246 100.285 86.4231 99.5141 85.5044C98.7436 84.5857 97.2915 84.1116 95.1874 84.1116C93.1723 84.1116 91.6905 84.5265 90.8607 85.5044Z" fill="white"/>
<path d="M125.771 84.1116C123.607 84.1116 122.066 84.5265 121.237 85.5044C120.407 86.4231 120.051 90.246 120.051 97.0324C120.051 103.819 120.466 107.582 121.296 108.472C122.126 109.39 123.667 109.805 125.83 109.805C127.993 109.805 129.683 109.449 130.986 108.679V115.791C129.386 116.473 127.015 116.769 123.933 116.829C120.94 116.888 118.332 115.791 116.258 113.332C114.154 110.961 113.117 105.508 113.117 96.9139C113.117 88.3197 114.154 82.8669 116.258 80.585C118.362 78.2735 120.94 77.177 123.933 77.177C126.926 77.177 129.297 77.5326 130.986 78.2142V85.2081C129.831 84.4376 128.082 84.1116 125.771 84.1116Z" fill="white"/>
<path d="M144.381 99.6105V116.562H137.447V77.3843H144.441V89.2679L144.293 92.8833L145.685 89.5346L151.494 77.3843H159.317L150.249 93.9502L159.792 116.562H152.264L145.419 99.6105L144.233 96.321L144.381 99.6105Z" fill="white"/>
<path d="M181.425 77.4436H174.431V116.621H181.425V77.4436Z" fill="white"/>
<path d="M194.79 99.0178V116.591H188.448V77.4436H196.124L202.407 94.7504L204.303 101.3L204.007 94.0392V77.4436H210.289V116.591H203.029L196.539 98.6622L194.524 91.7573L194.79 99.0178Z" fill="white"/>
<path d="M246.266 80.3194C247.807 82.2753 248.578 85.0609 248.578 88.7653C248.578 91.9066 247.896 94.1292 246.474 95.611C248.637 97.152 249.763 100.204 249.763 104.887C249.763 109.006 248.933 111.94 247.333 113.748C245.733 115.644 243.214 116.533 239.806 116.533H228.693V77.3855H239.035C242.354 77.3855 244.785 78.3634 246.266 80.3194ZM242.206 88.6468C242.206 85.7722 241.08 84.3793 238.858 84.3793H235.657V92.9142H239.006C241.169 92.9142 242.206 91.4917 242.206 88.6468ZM243.392 104.916C243.392 101.775 242.266 100.086 240.043 99.8784H235.657V109.658H240.043C242.266 109.658 243.392 108.058 243.392 104.916Z" fill="white"/>
<path d="M260.195 115.999C258.743 115.495 257.468 114.665 256.49 113.569C255.512 112.443 254.742 110.99 254.327 109.242C253.853 107.434 253.556 105.182 253.556 102.544V77.4141H260.61V103.937C260.61 106.812 260.965 108.471 261.647 108.975C262.417 109.479 263.543 109.746 265.144 109.746C266.744 109.746 267.929 109.479 268.552 108.975C269.174 108.471 269.47 106.812 269.47 103.937V77.4141H276.523V102.485C276.523 105.123 276.316 107.375 275.901 109.183C275.427 110.99 274.775 112.472 273.886 113.569C272.967 114.695 271.782 115.525 270.389 115.939C268.937 116.414 267.248 116.71 265.292 116.71C263.336 116.71 261.647 116.503 260.195 115.999Z" fill="white"/>
<path d="M288.407 83.8154C286.866 84.0821 285.888 85.149 285.533 86.8974C285.177 88.6459 286.511 90.8685 289.504 93.6838C292.497 96.4695 294.601 98.6329 295.994 100.174C297.387 101.715 298.157 103.73 298.365 106.249C298.572 108.916 297.653 111.346 295.727 113.569C293.771 115.792 291.045 116.918 287.429 116.858C283.725 116.799 281.147 116.295 279.606 115.466V108.679C283.458 109.924 286.244 110.428 287.992 110.22C289.741 110.013 290.778 109.035 291.193 107.286C291.608 105.479 290.274 103.226 287.34 100.5C285.799 99.107 284.555 97.8327 283.488 96.7955C282.362 95.7583 281.473 94.8396 280.85 94.0691C279.606 92.6763 278.746 90.6611 278.42 87.9939C278.065 85.4157 278.983 82.956 280.85 80.6741C282.806 78.3033 285.444 77.1179 288.822 77.1179C292.23 77.1179 294.482 77.4735 295.668 78.244V85.2379C292.319 84.0229 289.889 83.5487 288.407 83.8154Z" fill="white"/>
<path d="M309.3 77.3845H302.306V116.562H309.3V77.3845Z" fill="white"/>
<path d="M320.502 98.9588V116.562H314.13V77.3845H321.806L328.118 94.721L329.985 101.27L329.718 94.0097V77.3845H336.001V116.562H328.74L322.25 98.6328L320.206 91.6982L320.502 98.9588Z" fill="white"/>
<path d="M347.855 84.3784V92.9132H354.434V99.8774H347.855V109.598H358.405V116.562H340.891V77.3845H358.405V84.3784H347.855Z" fill="white"/>
<path d="M369.903 83.8154C368.362 84.0821 367.384 85.149 367.029 86.8974C366.673 88.6459 368.007 90.8685 371 93.6838C373.993 96.4695 376.097 98.6329 377.49 100.174C378.883 101.715 379.653 103.73 379.861 106.249C380.068 108.916 379.149 111.346 377.194 113.569C375.238 115.792 372.511 116.918 368.896 116.858C365.191 116.799 362.613 116.295 361.072 115.466V108.679C364.925 109.924 367.71 110.428 369.459 110.22C371.207 110.013 372.244 109.035 372.659 107.286C373.074 105.479 371.741 103.226 368.807 100.5C367.266 99.107 366.021 97.8327 364.954 96.7955C363.828 95.7583 362.939 94.8396 362.287 94.0691C361.042 92.6763 360.183 90.6611 359.857 87.9939C359.501 85.4157 360.42 82.956 362.287 80.6741C364.243 78.3033 366.91 77.1179 370.259 77.1179C373.697 77.1179 375.919 77.4735 377.105 78.244V85.2379C373.815 84.0229 371.355 83.5487 369.903 83.8154Z" fill="white"/>
<path d="M390.618 83.8154C389.077 84.0821 388.099 85.149 387.743 86.8974C387.388 88.6459 388.721 90.8685 391.715 93.6838C394.708 96.4695 396.812 98.6329 398.205 100.174C399.597 101.715 400.368 103.73 400.575 106.249C400.783 108.916 399.864 111.346 397.908 113.569C395.952 115.792 393.226 116.918 389.61 116.858C385.906 116.799 383.328 116.295 381.787 115.466V108.679C385.639 109.924 388.425 110.428 390.174 110.22C391.922 110.013 392.959 109.035 393.374 107.286C393.789 105.479 392.455 103.226 389.522 100.5C387.981 99.107 386.736 97.8327 385.669 96.7955C384.543 95.7583 383.654 94.8396 383.002 94.0691C381.757 92.6763 380.898 90.6611 380.572 87.9939C380.216 85.4157 381.135 82.956 383.002 80.6741C384.958 78.3033 387.625 77.1179 390.974 77.1179C394.382 77.1179 396.634 77.4735 397.819 78.244V85.2379C394.53 84.0229 392.07 83.5487 390.618 83.8154Z" fill="white"/>
<path d="M207.919 0.0372314V46.8012" stroke="#E30613" stroke-width="2.07445" stroke-miterlimit="10" stroke-linecap="round" stroke-linejoin="round"/>
<path d="M288.793 0.0372314V46.8012" stroke="#E30613" stroke-width="2.07445" stroke-miterlimit="10" stroke-linecap="round" stroke-linejoin="round"/>
<path d="M183.144 8.45349H399.509V21.5818H98.8622V8.45349H171.705" stroke="#E30613" stroke-width="2.07445" stroke-miterlimit="10" stroke-linecap="round" stroke-linejoin="round"/>
</g>
<defs>
<clipPath id="clip0">
<rect y="-1" width="496" height="160.532" fill="white"/>
</clipPath>
</defs>
</svg>

<svg width="496" height="160" fill="none" xmlns="http://www.w3.org/2000/svg"><g clip-path="url(#prefix__clip0)"><path d="M492.385 51.898c-10.343 0-18.73-8.387-18.73-18.73 0-.8.06-1.54.148-2.31H23.649c.088.77.148 1.54.148 2.31 0 10.343-8.387 18.73-18.73 18.73-1.215 0-2.43-.118-3.585-.355v85.882a17.736 17.736 0 013.586-.356c10.342 0 18.729 8.387 18.729 18.729 0 .771-.06 1.512-.148 2.253h450.125a18.736 18.736 0 01-.148-2.253c0-10.342 8.386-18.729 18.729-18.729.711 0 1.422.059 2.104.119V51.78c-.652.059-1.363.118-2.074.118z" fill="#79170E" stroke="#E30613" stroke-width="2.963" stroke-miterlimit="10" stroke-linecap="round" stroke-linejoin="round"/><path d="M485.865 59.01c-10.343 0-18.729-8.386-18.729-18.728 0-.8.059-1.541.148-2.312H30.464c.09.77.149 1.541.149 2.312 0 10.342-8.387 18.729-18.73 18.729-1.214 0-2.43-.119-3.585-.356v71.954a17.736 17.736 0 013.586-.356c10.342 0 18.729 8.387 18.729 18.729 0 .771-.06 1.512-.148 2.253h436.789a18.736 18.736 0 01-.148-2.253c0-10.342 8.387-18.729 18.729-18.729.711 0 1.423.059 2.104.119v-71.48c-.652.06-1.363.119-2.074.119z" fill="#79170E" stroke="#FDC100" stroke-width="2.963" stroke-miterlimit="10" stroke-linecap="round" stroke-linejoin="round"/><path d="M410.444 72.228H56.069M414.237 122.844H56.069" stroke="#E30613" stroke-width="2.074" stroke-miterlimit="10" stroke-linecap="round" stroke-linejoin="round"/><path d="M437.886 120.918l-.445-4.238c-.326-6.579.386-16.595 2.875-23.44 2.667-7.32 3.319-8.713 2.637-18.226M414.059 74.865c-.681 9.632-.029 10.995 2.638 18.345 2.489 6.875 3.23 16.862 2.904 23.441l-.444 4.238" stroke="#FDC100" stroke-width="2.074" stroke-miterlimit="10" stroke-linecap="round" stroke-linejoin="round"/><path d="M418.801 123.437c-1.393 4.06-.8 5.275-.8 5.275h21.041c.592-1.482-.8-5.275-.8-5.275s-13.988.089-13.929 0M438.272 72.228h4.682l-.889-9.869h-27.116s-.622 6.164-.829 9.869h13.75M435.722 72.228h-3.852" stroke="#fff" stroke-width="2.074" stroke-miterlimit="10" stroke-linecap="round" stroke-linejoin="round"/><path d="M434.626 89.861a5.97 5.97 0 01-5.986 5.986 5.97 5.97 0 01-5.986-5.986 5.988 5.988 0 015.986-5.986" stroke="#E30B17" stroke-width="2.074" stroke-miterlimit="10" stroke-linecap="round" stroke-linejoin="round"/><path d="M428.403 80.585l3.289 3.29-3.289 3.289" stroke="#E30B17" stroke-width="2.074" stroke-miterlimit="10" stroke-linecap="round" stroke-linejoin="round"/><path d="M73.672 80.32c1.541 1.955 2.312 4.74 2.312 8.445 0 3.142-.711 5.364-2.104 6.846 2.163 1.541 3.29 4.593 3.29 9.276 0 4.119-.83 7.053-2.43 8.861-1.601 1.896-4.12 2.785-7.558 2.785H56.07V77.385h10.313c3.379 0 5.809.978 7.29 2.934zm-4.06 8.327c0-2.875-1.126-4.268-3.348-4.268h-3.2v8.506h3.318c2.163 0 3.23-1.393 3.23-4.238zm1.186 16.269c0-3.141-1.126-4.83-3.349-5.038h-4.386v9.78h4.386c2.223 0 3.349-1.6 3.349-4.742zM104.76 80.466c1.896 2.164 2.785 7.617 2.785 16.33 0 8.742-.918 14.254-2.785 16.536-1.897 2.311-5.038 3.497-9.424 3.497-4.179 0-7.32-1.127-9.424-3.497-2.104-2.371-3.142-7.824-3.142-16.418s1.038-14.047 3.142-16.329c2.104-2.311 5.156-3.408 9.275-3.408 4.475 0 7.676 1.067 9.573 3.29zm-13.9 5.038c-.829.92-1.185 4.742-1.185 11.528 0 6.787.415 10.55 1.245 11.44.83.918 2.311 1.333 4.267 1.333 2.105 0 3.497-.415 4.268-1.333.77-.919 1.185-4.742 1.185-11.44 0-6.786-.355-10.609-1.126-11.528-.77-.918-2.222-1.392-4.327-1.392-2.015 0-3.496.415-4.326 1.392zM125.771 84.112c-2.164 0-3.705.415-4.534 1.392-.83.92-1.186 4.742-1.186 11.528 0 6.787.415 10.55 1.245 11.44.83.918 2.371 1.333 4.534 1.333s3.853-.356 5.156-1.126v7.112c-1.6.682-3.971.978-7.053 1.038-2.993.059-5.601-1.038-7.675-3.497-2.104-2.371-3.141-7.824-3.141-16.418s1.037-14.047 3.141-16.329c2.104-2.311 4.682-3.408 7.675-3.408 2.993 0 5.364.356 7.053 1.037v6.994c-1.155-.77-2.904-1.096-5.215-1.096zM144.381 99.61v16.952h-6.934V77.384h6.994v11.884l-.148 3.615 1.392-3.348 5.809-12.15h7.823l-9.068 16.565 9.543 22.612h-7.528l-6.845-16.951-1.186-3.29.148 3.29zM181.425 77.444h-6.994v39.177h6.994V77.444zM194.79 99.018v17.573h-6.342V77.444h7.676l6.283 17.306 1.896 6.55-.296-7.26V77.443h6.282v39.147h-7.26l-6.49-17.929-2.015-6.905.266 7.26zM246.266 80.32c1.541 1.955 2.312 4.74 2.312 8.445 0 3.142-.682 5.364-2.104 6.846 2.163 1.541 3.289 4.593 3.289 9.276 0 4.119-.83 7.053-2.43 8.861-1.6 1.896-4.119 2.785-7.527 2.785h-11.113V77.385h10.342c3.319 0 5.75.978 7.231 2.934zm-4.06 8.327c0-2.875-1.126-4.268-3.348-4.268h-3.201v8.535h3.349c2.163 0 3.2-1.422 3.2-4.267zm1.186 16.269c0-3.141-1.126-4.83-3.349-5.038h-4.386v9.78h4.386c2.223 0 3.349-1.6 3.349-4.742zM260.195 115.999c-1.452-.504-2.727-1.334-3.705-2.43-.978-1.126-1.748-2.579-2.163-4.327-.474-1.808-.771-4.06-.771-6.698v-25.13h7.054v26.523c0 2.875.355 4.534 1.037 5.038.77.504 1.896.771 3.497.771 1.6 0 2.785-.267 3.408-.771.622-.504.918-2.163.918-5.038V77.414h7.053v25.071c0 2.638-.207 4.89-.622 6.698-.474 1.807-1.126 3.289-2.015 4.386-.919 1.126-2.104 1.956-3.497 2.37-1.452.475-3.141.771-5.097.771-1.956 0-3.645-.207-5.097-.711zM288.407 83.815c-1.541.267-2.519 1.334-2.874 3.082-.356 1.749.978 3.971 3.971 6.787 2.993 2.785 5.097 4.949 6.49 6.49 1.393 1.541 2.163 3.556 2.371 6.075.207 2.667-.712 5.097-2.638 7.32-1.956 2.223-4.682 3.349-8.298 3.289-3.704-.059-6.282-.563-7.823-1.392v-6.787c3.852 1.245 6.638 1.749 8.386 1.541 1.749-.207 2.786-1.185 3.201-2.934.415-1.807-.919-4.06-3.853-6.786-1.541-1.393-2.785-2.667-3.852-3.704-1.126-1.038-2.015-1.956-2.638-2.727-1.244-1.393-2.104-3.408-2.43-6.075-.355-2.578.563-5.038 2.43-7.32 1.956-2.37 4.594-3.556 7.972-3.556 3.408 0 5.66.356 6.846 1.126v6.994c-3.349-1.215-5.779-1.69-7.261-1.423zM309.3 77.385h-6.994v39.177h6.994V77.385zM320.502 98.959v17.603h-6.372V77.385h7.676l6.312 17.336 1.867 6.549-.267-7.26V77.384h6.283v39.178h-7.261l-6.49-17.93-2.044-6.934.296 7.26zM347.855 84.378v8.535h6.579v6.964h-6.579v9.721h10.55v6.964h-17.514V77.385h17.514v6.993h-10.55zM369.903 83.815c-1.541.267-2.519 1.334-2.874 3.082-.356 1.749.978 3.971 3.971 6.787 2.993 2.785 5.097 4.949 6.49 6.49 1.393 1.541 2.163 3.556 2.371 6.075.207 2.667-.712 5.097-2.667 7.32-1.956 2.223-4.683 3.349-8.298 3.289-3.705-.059-6.283-.563-7.824-1.392v-6.787c3.853 1.245 6.638 1.749 8.387 1.541 1.748-.207 2.785-1.185 3.2-2.934.415-1.807-.918-4.06-3.852-6.786-1.541-1.393-2.786-2.667-3.853-3.704-1.126-1.038-2.015-1.956-2.667-2.727-1.245-1.393-2.104-3.408-2.43-6.075-.356-2.578.563-5.038 2.43-7.32 1.956-2.37 4.623-3.556 7.972-3.556 3.438 0 5.66.356 6.846 1.126v6.994c-3.29-1.215-5.75-1.69-7.202-1.423zM390.618 83.815c-1.541.267-2.519 1.334-2.875 3.082-.355 1.749.978 3.971 3.972 6.787 2.993 2.785 5.097 4.949 6.49 6.49 1.392 1.541 2.163 3.556 2.37 6.075.208 2.667-.711 5.097-2.667 7.32s-4.682 3.349-8.298 3.289c-3.704-.059-6.282-.563-7.823-1.392v-6.787c3.852 1.245 6.638 1.749 8.387 1.541 1.748-.207 2.785-1.185 3.2-2.934.415-1.807-.919-4.06-3.852-6.786-1.541-1.393-2.786-2.667-3.853-3.704-1.126-1.038-2.015-1.956-2.667-2.727-1.245-1.393-2.104-3.408-2.43-6.075-.356-2.578.563-5.038 2.43-7.32 1.956-2.37 4.623-3.556 7.972-3.556 3.408 0 5.66.356 6.845 1.126v6.994c-3.289-1.215-5.749-1.69-7.201-1.423z" fill="#fff"/><path d="M207.919.037v46.764M288.793.037v46.764M183.144 8.453h216.365v13.129H98.862V8.453h72.843" stroke="#E30613" stroke-width="2.074" stroke-miterlimit="10" stroke-linecap="round" stroke-linejoin="round"/></g><defs><clipPath id="prefix__clip0"><path fill="#fff" d="M0-1h496v160.532H0z"/></clipPath></defs></svg>
